X:870
T:Greensleeves
C:anon., words: anon.
O:England
R:Broadside ballad
Z:Transcribed by Frank Nordberg - http://www.musicaviva.com
F:http://abc.musicaviva.com/tunes/england/greensleeves-gdor/greensleeves-gdor-1.abc
M:6/4
L:1/4
Q:1/2=110
K:Gdor
G|"Gm"B2c d>ed|"F"c2A F>GA|"Gm"B2G G>^FG|"D"A2^F D2G|
w:A-las, my love_ you do me wrong_ to cast me off_ dis-court-eous-ly, and
"Gm"B2c d>ed|"F"c2A F>GA|"Gm"B>AG "D"^F>EF|"Gm"G2G G2z|
w:I have lo-_ved you so long,_ de-light--ing in_ your com-pa-ny.
"Bb"f3 f>ed|"F"c2A "Dm"F>GA|"Gm"B2G G>^FG|"D"A2^F D2z|
w:Green-sleeves_ was all my joy,__ Green-_sleeves_ was my de-light.
"Bb"f3 f>ed|"F"c2A "Dm"F>GA|"Gm"B>AG "D"^F>EF|"G"G3 G2|]
w:Green-sleeves was my heart of gold_ and who but my la-_dy Green-sleeves.
W:
W:Alas, my love, you do me wrong to cast me off discourteourly,
W:and I have loved you so long, delighting in your company.
W:
W:  Greensleeves was all my joy, Greensleeves was my delight.
W:  Greensleeves was my heart o gold and who but my lady Greensleeves.
W:
W:If you intend to do disdain, it does the more enrapture me,
W:And even so, I still remain a lover in captivity.
W:
W:  Greensleeves was...
W:
W:Alas, my love. that you should own a heart of wanton vanity.
W:So must I meditate alone upon you insincerity.
W:
W:  Greensleeves was...
W:
W:Ah, Greensleeves, now farewell, adieu, to God I pray to prosper thee,
W:for I am still your lover true come once again and love me.
W:
W:  Greensleeves was...
W:
W:
W:  From Musica Viva - http://www.musicaviva.com
W:  the Internet center for free sheet music downloads.

